X:643
T: ICH HAB MIR EINS ERWAEHLET
N: E0591B
O: Europa, Mitteleuropa, Deutschland, Thueringen; Sachsen
R: Liebes - Lied
M: 4/4
L: 1/8
K: G
D2 | G2F2A2G2 | c4B2
Bc | d2d2cBcd | B4z2
GB | BAAGF2
Ac | cBBAG2
GB | A2G2A2B2 | c6
dc | B2B2AGAB | G4z2

